!!!OTL: Letzter Wille (301), S. 623
!!!id: T0491
**kern
*clefG2
*k[]
*G:
{8g
=1
8g
4g
8g
8b
8a
=2yy
8g
=3
4a
8a
4b}
8r
=4
{4g
8g
8b
8a
8g
=5
4.a
4b}
=6
{8b
=7
8b
8cc
8dd
8dd
8cc
8b
=8
8cc
8b
8a
4b}
=9
{8d
=10
4g
8b
4b
8a
=11
4.a
4g}
8r
==
*-
!!!minrhy: 8
!!!meters: 6/8 ]  ZZ[4
!!!cut: Letzter Wille (301), S. 623
!!!reg: Luxemburg
!!!trd: Singendes Volk, Esch-Alzette 1937 posth.
!!!rhy1:   X_XXXX  X_XX_0
!!!rhy2: X_XXXX  X_.X_
!!!key: T0491  08  G 6/8 ]  ZZ[4
!!!mod: PENTATONIK DUR ?]  AMBITUS[8
!!!kad: 3331
!!!akz: 1323_1323_3543_1321_
!!!fot: 'a__av_as"aw_
!!!for: 'a__b__c__d__
!!!fok: '~a_~a_^__^a_
!! PHRAS[GEMISCHTTAKTIG]
!!!fkt: geistliches Lied
!!!bem: Hamm, fff Elisabeth Thoma, *1857, 23.2.1933
!! THILL, Mathias
!! PR[9] 2K[7] 2G[24] 3K[7] 3G[5] 4A[2] 4Ü[0] 5A[0] 6K[0] 6G[0]
!! 7K[0] 7G[0] 8A[0] MEHR[0] SI[45] ABS[55] SR[31] SP[15]
!! ST[13] 2k[5] 2g[29] 3k[9] 3g[2] 4d[0] 4ü[0] 5d[0] 6k[0] 6g[0]
!! 7k[0] 7g[0] 8d[0] mehr[0] si[45] dm[0] sr[35] sp[11]
!! 1F[7] 2F[73] 3F[12] 4F[5] LF[0] 2P[0] 3P[3] 4P[0] TRI[0] DF[5] AB[60]
!! TF[0] U3K[0] U3[0] U4[0] U4Ü[0] U5[2] U6K[0] U6[0] U7K[0] U7[0]
!! N1[11] N2K[0] N2[27] N3K[0] N3[36] N4[9] N4Ü[0] N5[16] N6K[0] N6[0]
!!!n7k: 0] N7[0] O1[0] O2K[0] O2[0] O3K[0] O3[0] HÖ[0
